X: 42337
T: Wee Totum Fogg
R: three-two
M: 3/2
K: Amixolydian
a2 ga f2|ge eg fe|da ca B/c/d|cA AB cA:|
A/B/c/d/ eA cB|GB Bd cA|A/B/c/d/ eA cB|GB Bd c/B/A:|

